X:1
T:James Gibb editions
T:Rest awhile - Dowland
T:#
%%score [ 1 2 3 4 ]
L:1/8
Q:1/4=140
M:3/2
K:C
V:1 treble nm="Soprano" snm="S"
V:2 treble nm="Alto" snm="A"
V:3 treble-8 nm="Tenor" snm="T"
V:4 bass nm="Bass" snm="B"
V:1
"^John Dowland\n(1563-1626)""^Rest awhile, you cruel cares" B2 B2 | d12 | B4 A6 A2 | G12 | %4
w: Rest a-|while,|you cru- el|cares,|
w: If I|speak,|my words want|weight,|
w: Nev- er|hour|of pleas- ing|rest|
 z8 A2 A2 | c12 | d4 B4 G4 | A12 | z8 A2 A2 | A12 | A4 B4 ^c4 | d12 | B6 B2 c4 | G4 A4 A4 | G12 | %15
w: Be not|more|se- vere than|love.|Beau- ty|kills|and beau- ty|spares,|And sweet smiles|sad sighs re-|move:|
w: Am I|mute,|my heart doth|break.|If I|sigh,|she fears de-|ceit,|Sor- row then|for me must|speak:|
w: Shall re-|vive|my dy- ing|ghost,|Til my|soul|hath re- po-|ssess'd|The sweet hope|which love hath|lost:|
 z12 |[K:F] G6 A2 B4 | A8 A4 | B8 c4 | d12 | d4 d4 c4 | B8 A4 | B4 G8 | ^F12 | (A3 B) c4 B4 | %25
w: |Lau- ra, fair|queen of|my de-|light,|Come, grant me|love in|love's de-|spite,|And * if I|
w: |Cru- el, un-|kind, with|fa- vour|view|The wound that|first was|made by|you;|And * if my|
w: |Lau- ra, re-|deem the|soul that|dies|By fu- ry|of thy|mur- d'ring|eyes,|And * if it|
 (A8 B2) A2 | G6 (AB) c2 B2 | A8 z4 |: B8 A4 | (G6 A2) (B2 c2 | d4) c4 c4 | d12 | d8 c4 | B12 | %34
w: e\- * ver|fail to * hon- our|thee,|Let this|heav'\- * nly *|* light I|see|Be as|dark|
w: tor\- * ments|e- ver * feign- ed|be,|||||||
w: e\- * ver|proves un\- * kind to|thee,|||||||
 c4 A4 A4 | G12 :| %36
w: as Hell to|me.|
w: ||
w: ||
V:2
 G2 G2 | G12 | D4 D6 C2 | B,12 | z8 F2 F2 | A12 | A4 G6 G2 | ^F12 | z8 F2 F2 | F12 | F4 G4 G4 | %11
w: Rest a-|while,|you cru- el|cares,|Be not|more|se- vere than|love.|Beau- ty|kills|and beau- ty|
w: If I|speak,|my words want|weight,|Am I|mute,|my heart doth|break.|If I|sigh,|she fears de-|
w: Nev- er|hour|of pleas- ing|rest|Shall re-|vive|my dy- ing|ghost,|Til my|soul|hath re- po-|
 ^F12 | D6 D2 G4 | E4 (G2 ^FE) F4 | B12 | z12 |[K:F] D4 D4 G4 | ^F8 F4 | G8 A4 | B12 | B4 B4 A4 | %21
w: spares,|And sweet smiles|sad sighs * * re-|move:||Lau- ra, fair|queen of|my de-|light,|Come, grant me|
w: ceit,|Sor- row then|for me * * must|speak:||Cru- el, un-|kind, with|fa- vour|view|The wound that|
w: ssess'd|The sweet hope|which love * * hath|lost:||Lau- ra, re-|deem the|soul that|dies|By fu- ry|
 G8 F4 | D8 C4 | D12 | C2 F4 A2 G3 G | ^F8 D4- | D4 G6 G2 | ^F8 z4 |: F8 F4 | (_E6 F2) (G2 A2 | %30
w: love in|love's de-|spite,|And if I e- ver|fail to|* hon- our|thee,|Let this|heav'\- * nly *|
w: first was|made by|you;|And if my tor- ments|e- ver|* feign- ed|be,|||
w: of thy|mur- d'ring|eyes,|And if it e- ver|proves un\-|* kind to|thee,|||
 B4) B4 A4 | B12 | B8 A4 | F12 | G4 G4 ^F4 | G12 :| %36
w: * light I|see|Be as|dark|as Hell to|me.|
w: ||||||
w: ||||||
V:3
 d2 d2 | B12 | z2 G4 (^FE) F4 | G12 | z8 c2 c2 | f12 | ^f4 d4 e4 | A12 | z8 d2 d2 | d12 | %10
w: Rest a-|while,|you cru\- * el|cares,|Be not|more|se- vere than|love.|Beau- ty|kills|
w: If I|speak,|my words * want|weight,|Am I|mute,|my heart doth|break.|If I|sigh,|
w: Nev- er|hour|of pleas\- * ing|rest|Shall re-|vive|my dy- ing|ghost,|Til my|soul|
 d4 d4 e4 | A12 | G2 (B3 c d2) e2 c2- | c2 B2 (d6 c2) | B12 | z12 |[K:F] B6 c2 d4 | d8 d4 | d8 f4 | %19
w: and beau- ty|spares,|And sweet * * smiles sad|* sighs re\- *|move:||Lau- ra, fair|queen of|my de-|
w: she fears de-|ceit,|Sor- row * * then for|* me must *|speak:||Cru- el, un-|kind, with|fa- vour|
w: hath re- po-|ssess'd|The sweet * * hope which|* love hath *|lost:||Lau- ra, re-|deem the|soul that|
 f12 | f4 f4 f4 | d8 d4- | d2 B4 (B2 A2 G2) | A12 | z2 c2 A2 F2 B3 c | d8 f4 | B8 (A2 G2) | %27
w: light,|Come, grant me|love in|* love's de\- * *|spite,|And if I e- ver|fail to|hon- our *|
w: view|The wound that|first was|* made by * *|you;|And if my tor- ments|e- ver|feign- ed *|
w: dies,|By fu- ry|of thy|* mur d'ring * *|eyes,|And if it e- ver|proves un-|kind to *|
 d8 z4 |: d8 d4 | c12 | f4 f6 f2 | f12 | f8 f4 | d8 _e4- | e4 d6 c2 | =B12 :| %36
w: thee,|Let this|heav'-|nly light I|see|Be as|dark as|* Hell to|me.|
w: be,|||||||||
w: thee,|||||||||
V:4
 G,2 G,2 | G,12 | G,4 D,4 D,4 | G,,12 | z8 F,2 F,2 | F,12 | D,4 G,4 E,4 | D,12 | z8 D,2 D,2 | %9
w: Rest a-|while,|you cru- el|cares,|Be not|more|se- vere than|love.|Beau- ty|
w: If I|speak,|my words want|weight,|Am I|mute,|my heart doth|break.|If I|
w: Ne~v- er|hour|of pleas- ing|rest|Shall re-|vive|my dy- ing|ghost,|Til my|
 D,12 | D,4 G,4 E,4 | D,12 | G,6 G,2 C,4 | E,4 D,4 D,4 | G,,12 | z12 |[K:F] G,,4 G,,4 G,,4 | %17
w: kills|and beau- ty|spares,|And sweet smiles|sad sighs re-|move:||Lau- ra, fair|
w: sigh,|she fears de-|ceit,|Sor- row then|for me must|speak:||Cru- el, un-|
w: soul|hath re- po-|ssess'd|The sweet hope|which love hath|lost:||Lau- ra, re-|
 D,8 D,4 | G,8 F,4 | B,,12 | (B,,3 C,) (D,2 _E,2) F,4 | G,8 D,4 | B,,4 _E,8 | D,12 | F,4 F,4 G,4 | %25
w: queen of|my de-|light,|Come, * grant * me|love in|love's de-|spite,|And if I|
w: kind, with|fa- vour|view|The * wound * that|first was|made by|you;|And if my|
w: deem the|soul that|dies|By * fu\- * ry|of thy|mur- d'ring|eyes,|And if it|
 D,8 B,,4 | _E,6 D,2 C,2 C,2 | D,8 z4 |: (B,,3 C, D,2 E,2 F,2) D,2 | _E,12 | B,,4 F,4 F,4 | B,,12 | %32
w: e- ver|fail to hon- our|thee,|Let * * * * this|heav'-|nly light I|see|
w: tor- ments|e- ver feign- ed|be,|||||
w: e- ver|proves un- kind to|thee,|||||
 (B,,3 C, D,2 E,2) F,4 | (F,8 _E,2 D,2) | C,4 D,4 D,4 | G,,12 :| %36
w: Be * * * as|dark * *|as Hell to|me.|
w: ||||
w: ||||

